<?xml version="1.0" encoding="UTF-8"?>
<map version="1.10" tiledversion="1.11.2" orientation="orthogonal" renderorder="right-down" width="20" height="24" tilewidth="40" tileheight="40" infinite="0" nextlayerid="6" nextobjectid="60">
 <editorsettings>
  <export target="room1.lua" format="lua"/>
 </editorsettings>
 <properties>
  <property name="name" value="Test Map - Room 1"/>
 </properties>
 <tileset firstgid="1" source="../tilesets/castle.tsx"/>
 <layer id="1" name="tiles" width="20" height="24">
  <data encoding="csv">
0,23,23,23,23,21,23,23,23,23,23,23,23,21,23,23,23,23,23,0,
0,26,27,27,27,27,27,27,27,27,27,27,27,27,27,27,27,27,27,0,
5,6,7,7,7,7,7,7,7,7,7,7,7,7,7,7,7,7,8,0,
0,10,11,11,11,11,11,11,11,11,17,11,17,11,11,11,11,11,12,0,
0,10,11,11,11,11,17,11,11,11,11,11,11,11,11,11,17,11,12,0,
0,10,11,11,11,11,17,17,11,11,11,11,11,11,17,11,11,11,12,0,
0,10,11,11,17,11,11,17,17,11,11,11,11,11,11,11,11,11,12,0,
0,10,11,11,11,11,11,17,11,11,11,11,17,11,11,11,11,11,12,17,
0,10,11,11,11,11,11,11,11,11,17,11,11,11,11,11,11,11,12,17,
0,10,11,17,11,11,11,11,11,11,11,11,11,11,11,17,11,11,12,0,
0,10,11,11,11,11,11,11,11,17,11,11,11,11,11,11,11,11,12,0,
0,10,11,11,11,11,11,11,11,11,11,11,11,11,11,11,11,11,12,0,
0,10,11,11,11,11,17,15,15,15,15,15,11,11,11,17,11,11,12,0,
0,14,15,15,15,15,15,15,15,15,15,15,15,15,15,15,15,15,16,0,
0,0,0,0,0,0,0,0,0,0,0,0,0,0,0,0,0,0,0,0,
0,0,0,0,0,0,0,0,0,0,0,0,0,0,0,0,0,0,0,0,
0,0,0,0,0,0,0,0,0,0,0,0,0,0,0,0,0,0,0,0,
0,0,0,0,0,0,0,0,0,0,0,0,0,0,0,0,0,0,0,0,
0,0,0,0,0,0,0,0,0,0,0,0,0,0,0,0,0,0,0,0,
0,0,0,0,0,0,0,0,0,0,0,0,0,0,0,0,0,0,0,0,
0,0,0,0,0,0,0,0,0,0,0,0,0,0,0,0,0,0,0,0,
0,0,0,0,0,0,0,0,0,0,0,0,0,0,0,0,0,0,0,0,
0,0,0,0,0,0,0,0,0,0,0,0,0,0,0,0,0,0,0,0,
0,0,0,0,0,0,0,0,0,0,0,0,0,0,0,0,0,0,0,0
</data>
 </layer>
 <layer id="2" name="decal" width="20" height="24">
  <data encoding="csv">
0,0,0,0,0,0,0,0,0,0,0,0,0,0,0,0,0,0,0,5,
0,0,0,0,0,0,0,0,0,0,0,0,0,0,0,0,0,0,0,5,
0,0,0,0,0,0,0,0,0,0,0,0,0,0,0,0,0,0,0,5,
0,0,0,0,0,0,0,0,0,0,0,0,0,0,0,0,0,0,0,5,
0,0,0,0,0,0,0,0,0,0,0,0,0,0,0,0,0,0,0,5,
0,0,0,0,0,0,30,31,32,0,0,0,0,0,0,0,0,0,0,5,
0,0,0,0,0,0,34,35,36,0,0,0,0,0,0,0,0,0,0,5,
0,0,0,0,0,0,38,39,40,0,0,0,0,0,0,0,0,0,0,5,
0,0,0,0,0,0,0,0,0,0,0,0,0,0,0,0,0,0,0,5,
0,0,0,0,0,0,0,0,0,0,0,0,0,0,0,0,0,0,0,5,
0,0,0,0,0,0,0,0,0,0,0,0,0,0,0,0,0,0,0,5,
0,0,0,0,0,0,0,0,0,0,0,0,0,0,0,0,0,0,0,5,
0,0,0,0,0,0,0,0,0,0,0,0,0,0,0,0,0,0,0,5,
0,0,0,0,0,0,0,0,0,0,0,0,0,0,0,0,0,0,0,5,
0,0,0,5,5,5,5,5,5,5,5,5,5,5,5,5,5,5,5,5,
0,0,0,0,0,0,0,0,0,0,0,0,0,0,0,0,0,5,0,0,
0,0,0,0,0,0,0,0,0,0,0,0,0,0,0,0,0,0,0,0,
0,0,0,0,0,0,0,0,0,0,0,0,0,0,0,0,0,0,0,0,
0,0,0,0,0,0,0,0,0,0,0,0,0,0,0,0,0,0,0,0,
0,0,0,0,0,0,0,0,0,0,0,0,0,0,0,0,0,0,0,0,
0,0,0,0,0,0,0,0,0,0,0,0,0,0,0,0,0,0,0,0,
0,0,0,0,0,0,0,0,0,0,0,0,0,0,0,0,0,0,0,0,
0,0,0,0,0,0,0,0,0,0,0,0,0,0,0,0,0,0,0,0,
0,0,0,0,0,0,0,0,0,0,0,0,0,0,0,0,0,0,0,0
</data>
 </layer>
 <objectgroup color="#0000ff" id="3" name="collision" opacity="0.5">
  <object id="39" x="-3.39863" y="557.376" width="804.343" height="40.7836"/>
  <object id="41" x="-4.53151" y="-3.39863" width="49.8466" height="582.299"/>
  <object id="42" x="757.895" y="377.248" width="52.1123" height="184.659"/>
  <object id="44" x="744.3" y="-14.7274" width="63.4411" height="292.282"/>
  <object id="45" x="755.629" y="356.856" width="61.1754" height="26.0562"/>
  <object id="46" x="745.433" y="-15.8603"/>
  <object id="47" x="37.3849" y="-5.66439" width="727.307" height="80.4343"/>
 </objectgroup>
 <objectgroup color="#ff00ff" id="4" name="objects">
  <object id="59" name="chest_1" type="chest" x="540.382" y="277.555" width="40.7836" height="49.8466"/>
 </objectgroup>
 <objectgroup color="#7f00ff" id="5" name="markers">
  <object id="49" name="spawn" type="spawn" x="291.149" y="244.701" width="20.3918" height="20.3918"/>
  <object id="57" name="empty" type="transition" x="759.028" y="277.555" width="41.9165" height="78.1685">
   <properties>
    <property name="map" value="room2"/>
    <property name="marker" value=""/>
   </properties>
  </object>
 </objectgroup>
</map>
